_includes/icons/ios-windows-phone-store.svg

<svg fill="#666" height="50" viewBox="0 0 50 50" width="50" xmlns="http://www.w3.org/2000/svg"><path d="m24.984375 3.9863281a1.0001 1.0001 0 0 0 -.144531.0136719h-19.839844a1.0001 1.0001 0 0 0 -1 1v19.832031a1.0001 1.0001 0 0 0 0 .326172v19.841797a1.0001 1.0001 0 0 0 1 1h19.832031a1.0001 1.0001 0 0 0 .326172 0h19.841797a1.0001 1.0001 0 0 0 1-1v-19.832031a1.0001 1.0001 0 0 0 0-.326172v-19.841797a1.0001 1.0001 0 0 0 -1-1h-19.845703a1.0001 1.0001 0 0 0 -.169922-.0136719zm-18.984375 2.0136719h18v18h-18zm20 0h18v18h-18zm-20 20h18v18h-18zm20 0h18v18h-18z"/></svg>

<svg xmlns="http://www.w3.org/2000/svg" viewBox="0 0 50 50" width="50" height="50" fill="#666"><path style="line-height:normal;text-indent:0;text-align:start;text-decoration-line:none;text-decoration-style:solid;text-decoration-color:#000;text-transform:none;block-progression:tb;isolation:auto;mix-blend-mode:normal" d="M 24.984375 3.9863281 A 1.0001 1.0001 0 0 0 24.839844 4 L 5 4 A 1.0001 1.0001 0 0 0 4 5 L 4 24.832031 A 1.0001 1.0001 0 0 0 4 25.158203 L 4 45 A 1.0001 1.0001 0 0 0 5 46 L 24.832031 46 A 1.0001 1.0001 0 0 0 25.158203 46 L 45 46 A 1.0001 1.0001 0 0 0 46 45 L 46 25.167969 A 1.0001 1.0001 0 0 0 46 24.841797 L 46 5 A 1.0001 1.0001 0 0 0 45 4 L 25.154297 4 A 1.0001 1.0001 0 0 0 24.984375 3.9863281 z M 6 6 L 24 6 L 24 24 L 6 24 L 6 6 z M 26 6 L 44 6 L 44 24 L 26 24 L 26 6 z M 6 26 L 24 26 L 24 44 L 6 44 L 6 26 z M 26 26 L 44 26 L 44 44 L 26 44 L 26 26 z"/></svg>
